src/assets/close.svg

<?xml version="1.0" encoding="UTF-8"?>
<svg fill="#FFF" viewBox="0 0 18 18" xmlns="http://www.w3.org/2000/svg">
<path d="m10.41 9 6.3-6.29c0.1883-0.1883 0.2941-0.4437 0.2941-0.71s-0.1058-0.52169-0.2941-0.71c-0.1883-0.1883-0.4437-0.29409-0.71-0.29409s-0.5217 0.10579-0.71 0.29409l-6.29 6.3-6.29-6.3c-0.1883-0.1883-0.4437-0.29409-0.71-0.29409s-0.5217 0.10579-0.71 0.29409c-0.1883 0.18831-0.29409 0.4437-0.29409 0.71s0.10579 0.5217 0.29409 0.71l6.3 6.29-6.3 6.29c-0.09373 0.093-0.16812 0.2036-0.21889 0.3254-0.05077 0.1219-0.076909 0.2526-0.076909 0.3846s0.026139 0.2627 0.076909 0.3846c0.05077 0.1218 0.12516 0.2324 0.21889 0.3254 0.09296 0.0937 0.20356 0.1681 0.32542 0.2189s0.25257 0.0769 0.38458 0.0769 0.26272-0.0261 0.38458-0.0769 0.23246-0.1252 0.32542-0.2189l6.29-6.3 6.29 6.3c0.093 0.0937 0.2036 0.1681 0.3255 0.2189 0.1218 0.0508 0.2525 0.0769 0.3845 0.0769 0.1321 0 0.2628-0.0261 0.3846-0.0769 0.1219-0.0508 0.2325-0.1252 0.3254-0.2189 0.0938-0.093 0.1682-0.2036 0.2189-0.3254 0.0508-0.1219 0.0769-0.2526 0.0769-0.3846s-0.0261-0.2627-0.0769-0.3846c-0.0507-0.1218-0.1251-0.2324-0.2189-0.3254l-6.3-6.29z" fill="#fff"/>
</svg>

<svg width="18" height="18" viewBox="0 0 18 18" fill="#FFF" xmlns="http://www.w3.org/2000/svg">
<path d="M10.4099 9L16.7099 2.71C16.8982 2.5217 17.004 2.2663 17.004 2C17.004 1.7337 16.8982 1.47831 16.7099 1.29C16.5216 1.1017 16.2662 0.995911 15.9999 0.995911C15.7336 0.995911 15.4782 1.1017 15.2899 1.29L8.99994 7.59L2.70994 1.29C2.52164 1.1017 2.26624 0.995911 1.99994 0.995911C1.73364 0.995911 1.47824 1.1017 1.28994 1.29C1.10164 1.47831 0.995847 1.7337 0.995847 2C0.995847 2.2663 1.10164 2.5217 1.28994 2.71L7.58994 9L1.28994 15.29C1.19621 15.383 1.12182 15.4936 1.07105 15.6154C1.02028 15.7373 0.994141 15.868 0.994141 16C0.994141 16.132 1.02028 16.2627 1.07105 16.3846C1.12182 16.5064 1.19621 16.617 1.28994 16.71C1.3829 16.8037 1.4935 16.8781 1.61536 16.9289C1.73722 16.9797 1.86793 17.0058 1.99994 17.0058C2.13195 17.0058 2.26266 16.9797 2.38452 16.9289C2.50638 16.8781 2.61698 16.8037 2.70994 16.71L8.99994 10.41L15.2899 16.71C15.3829 16.8037 15.4935 16.8781 15.6154 16.9289C15.7372 16.9797 15.8679 17.0058 15.9999 17.0058C16.132 17.0058 16.2627 16.9797 16.3845 16.9289C16.5064 16.8781 16.617 16.8037 16.7099 16.71C16.8037 16.617 16.8781 16.5064 16.9288 16.3846C16.9796 16.2627 17.0057 16.132 17.0057 16C17.0057 15.868 16.9796 15.7373 16.9288 15.6154C16.8781 15.4936 16.8037 15.383 16.7099 15.29L10.4099 9Z" fill="#FFFFFF"/>
</svg>
